icons/speech-bubble-plus.svg

<svg xmlns="http://www.w3.org/2000/svg" width="24" height="24" viewBox="0 0 24 24">
  <path d="M15,3 C19.5522847,3 23,6.44771525 23,11 C23,15.5522847 19.5522847,19 15,19 L15,19 L14.492,19 L14.4215793,19.0906275 C13.7103901,19.9663638 12.948642,20.6393906 11.8907103,21.256749 L11.8907103,21.256749 L11.5946555,21.4238497 L11.2369286,21.6140163 L10.9086251,21.7821926 C9.57755795,22.4597178 8,21.4937799 8,20 L8,20 L8,19 C4.27285013,19 1,15.3634999 1,11 C1,6.5377729 4.49099359,3 9,3 L9,3 Z M12,7 C11.4477153,7 11,7.44771525 11,8 L11,8 L10.999,10 L9,10 L8.88337887,10.0067277 C8.38604019,10.0644928 8,10.4871642 8,11 C8,11.5522847 8.44771525,12 9,12 L9,12 L10.999,12 L11,14 L11.0067277,14.1166211 C11.0644928,14.6139598 11.4871642,15 12,15 C12.5522847,15 13,14.5522847 13,14 L13,14 L12.999,12 L15,12 L15.1166211,11.9932723 C15.6139598,11.9355072 16,11.5128358 16,11 C16,10.4477153 15.5522847,10 15,10 L15,10 L12.999,10 L13,8 L12.9932723,7.88337887 C12.9355072,7.38604019 12.5128358,7 12,7 Z"/>
</svg>

<svg xmlns="http://www.w3.org/2000/svg" viewBox="0 0 24 24">
  <path d="M15 3c4.55 0 8 3.45 8 8s-3.45 8-8 8h-.5l-.08.1a8.85 8.85 0 0 1-2.53 2.16l-.3.16-.35.2-.33.16A2 2 0 0 1 8 20v-1c-3.73 0-7-3.64-7-8 0-4.46 3.5-8 8-8zm-3 4a1 1 0 0 0-1 1v2H8.88A1 1 0 0 0 9 12h2v2.12a1 1 0 0 0 2-.12v-2h2.12a1 1 0 0 0-.12-2h-2V7.88A1 1 0 0 0 12 7z"/>
</svg>
